svg/outline/alipay.svg

<svg xmlns="http://www.w3.org/2000/svg" width="750" height="471" viewBox="0 0 750 471">
  <g fill="none" fill-rule="evenodd" transform="translate(15 15)">
    <rect width="720" height="441" stroke="#393939" stroke-width="30" rx="25"/>
    <path fill="#393939" d="M84.460353,228.349396 C79.6592864,228.949379 71.2574197,230.749327 66.456353,234.949206 C52.053153,247.548841 60.4550197,269.7482 89.861553,269.7482 C106.665286,269.7482 123.46902,258.948512 136.671953,242.148997 C117.467686,233.149258 101.86422,226.549448 84.460353,228.349396 L84.460353,228.349396 Z"/>
    <path fill="#393939" d="M192.034 243.796653C219.04 252.796393 225.041333 253.396375 225.041333 253.396375L225.041333 157.39915C225.041333 141.199618 211.8384 128 195.034667 128L69.0066667 128C52.8030667 128 39 141.199618 39 157.39915L39 283.395508C39 299.59504 52.2029333 312.794658 69.0066667 312.794658L195.034667 312.794658C211.238267 312.794658 225.041333 299.59504 225.041333 283.395508L225.041333 282.195543C225.041333 282.195543 177.030667 262.396115 152.4252 250.396462 136.2216 270.19589 115.216933 282.795525 93.012 282.795525 55.8037333 282.795525 43.2009333 250.396462 61.2049333 229.397069 64.8057333 224.597208 71.4072 220.397329 81.6094667 217.997399 97.2129333 214.397503 122.418533 220.397329 145.823733 228.197104 150.024667 220.397329 153.625467 211.997572 156.026 202.997832L83.4098667 202.997832 83.4098667 195.79804 120.618133 195.79804 120.618133 181.398456 75.008 181.398456 75.008 174.198665 120.618133 174.198665 120.618133 155.599202C120.618133 155.599202 120.618133 152.599289 123.6188 152.599289L141.6228 152.599289 141.6228 174.798647 186.6328 174.798647 186.6328 181.398456 141.6228 181.398456 141.6228 194.598075 178.230933 194.598075C174.630133 208.997659 169.228933 222.197277 162.627467 233.596948 174.630133 237.796826 184.8324 241.396722 192.034 243.796653L192.034 243.796653zM310.688933 171.612532L350.297733 257.410052 329.293067 257.410052 318.490667 234.610711 286.083467 234.610711 275.281067 257.410052 261.478 257.410052 301.686933 174.012463C301.686933 174.012463 302.8872 171.612532 305.287733 171.612532 307.088133 171.612532 310.688933 171.612532 310.688933 171.612532L310.688933 171.612532zM289.684267 226.810937L314.889867 226.810937 302.287067 199.811717 289.684267 226.810937 289.684267 226.810937zM377.132267 258.092791L357.928 258.092791 357.928 176.49515C357.928 174.095219 359.128267 172.895254 362.128933 172.895254L377.132267 172.895254 377.132267 258.092791 377.132267 258.092791zM413.140267 257.534187L393.936 257.534187 393.936 195.735973C393.936 193.336042 395.136267 192.136077 398.136933 192.136077L413.140267 192.136077 413.140267 257.534187 413.140267 257.534187zM436.621934 193.418799L449.224734 193.418799 449.224734 199.418625C451.625267 197.618677 454.025801 195.818729 457.026467 195.218747 460.027134 194.018781 463.027801 193.418799 467.228734 193.418799 471.429667 193.418799 475.030467 194.018781 478.031134 195.818729 481.631934 197.618677 484.032467 199.418625 486.433001 202.418539 488.833534 205.418452 490.633934 208.418365 491.834201 212.018261 493.034467 215.618157 493.634601 219.218053 493.634601 223.417932 493.634601 228.817775 493.034467 233.617637 491.234067 237.817515 489.433667 242.017394 487.633267 246.217272 484.632601 249.217186 481.631934 252.217099 478.631267 255.217012 474.430334 257.01696 470.229401 258.816908 466.028467 259.416891 461.227401 259.416891L454.625934 259.416891C452.825534 259.416891 451.025134 258.816908 449.224734 258.216926L449.224734 279.816301 430.020467 279.816301 430.020467 201.218573C429.420334 193.418799 432.421001 193.418799 436.621934 193.418799L436.621934 193.418799zM449.224734 240.217446C449.224734 242.017394 449.224734 243.217359 449.824867 244.417325 450.425001 245.61729 451.025134 246.817255 452.225401 248.01722 453.425667 249.217186 454.625934 249.817168 455.826201 250.417151 457.026467 251.017134 458.826867 251.017134 460.627267 251.017134 462.427667 251.017134 463.627934 250.417151 465.428334 249.217186 466.628601 248.01722 468.429001 246.817255 469.029134 244.417325 469.629267 242.017394 470.829534 240.217446 471.429667 237.217533 472.029801 234.217619 472.629934 231.817689 472.629934 228.217793 472.629934 224.017914 472.629934 220.418018 472.029801 217.418105 471.429667 214.418192 470.829534 212.018261 469.629267 209.61833 468.429001 207.818382 467.228734 206.018434 466.028467 204.818469 464.828201 203.618504 463.027801 203.018521 461.227401 203.018521 460.027134 203.018521 458.826867 203.018521 457.626601 203.618504 456.426334 204.218486 455.226067 204.818469 454.625934 205.418452 453.425667 206.018434 452.825534 207.2184 451.625267 207.818382 450.425001 209.018348 449.824867 209.61833 449.224734 210.818296L449.224734 240.217446 449.224734 240.217446zM530.252 193.418799C535.053067 193.418799 538.653867 194.018781 542.254667 194.618764 545.255333 195.218747 548.256 196.418712 550.656533 198.21866 553.057067 200.018608 554.257333 201.818556 555.4576 203.618504 556.657867 206.018434 557.258 208.418365 557.258 210.818296L557.258 258.216926 538.053733 258.216926 538.053733 253.417064C536.853467 254.61703 535.6532 255.217012 535.053067 255.816995 533.8528 256.416978 532.652533 257.01696 531.452267 257.616943 530.252 258.216926 529.051733 258.816908 527.251333 258.816908 525.450933 259.416891 523.650533 259.416891 521.850133 259.416891 518.849467 259.416891 516.448933 258.816908 514.0484 258.216926 511.647867 257.616943 509.847467 256.416978 508.047067 254.61703 506.246667 253.417064 505.0464 251.617116 504.446267 249.217186 503.846133 247.417238 503.246 245.017307 503.246 242.617377 503.246 240.217446 503.846133 237.817515 504.446267 236.017567 505.0464 234.217619 506.8468 232.417671 508.047067 230.617723 509.247333 228.817775 511.647867 227.61781 513.448267 226.417845 515.8488 225.217879 517.6492 224.017914 520.649867 222.817949 523.0504 221.617984 525.450933 221.018001 528.4516 219.818036 530.852133 219.218053 533.8528 218.018088 536.253333 217.418105L538.653867 216.818122 538.653867 210.218313C538.653867 208.418365 538.653867 206.618417 538.053733 204.818469 537.4536 203.618504 536.853467 202.418539 536.253333 201.218573 535.6532 200.618591 534.452933 199.418625 533.8528 199.418625 532.652533 198.818643 531.452267 198.818643 530.252 198.818643 530.252 198.818643 520.049733 198.818643 511.047733 206.618417L506.8468 200.018608C505.0464 201.218573 515.8488 193.418799 530.252 193.418799L530.252 193.418799zM536.853467 225.217879C535.053067 225.817862 533.252667 227.017827 531.452267 228.217793 529.651867 229.417758 527.851467 230.617723 526.051067 231.817689 524.250667 233.017654 523.0504 234.217619 522.450267 236.017567 521.25 237.217533 521.25 239.017481 521.25 240.217446 521.25 241.417411 521.25 242.617377 521.850133 243.817342 522.450267 245.017307 522.450267 245.61729 523.0504 246.817255 523.650533 248.01722 524.250667 248.01722 524.8508 248.617203 525.450933 249.217186 526.051067 249.217186 527.251333 249.217186 529.051733 249.217186 530.252 248.617203 532.0524 248.01722 533.8528 246.817255 535.6532 245.61729 537.4536 244.417325L537.4536 225.217879 536.853467 225.217879zM583.406667 279.216319L570.803867 279.216319 570.203733 267.816648C570.203733 267.816648 585.8072 268.416631 590.608267 262.416804 592.408667 260.016874 593.608933 253.417064 593.608933 253.417064L562.402 193.418799 583.406667 193.418799 603.211067 232.417671 620.614933 193.418799 634.418 193.418799 602.610933 264.216752C601.410667 266.616683 596.6096 279.216319 583.406667 279.216319L583.406667 279.216319z"/>
    <ellipse cx="403.602" cy="174.5" fill="#393939" rx="9.602" ry="8.5"/>
    <path fill="#393939" d="M653.879 143.31L647.278 143.31 647.278 142.11 661.681 142.11 661.681 143.31 655.08 143.31 655.08 161.909 653.279 161.909 653.279 143.31z"/>
    <path fill="#393939" d="M664.596133,142.109937 L666.996667,142.109937 L671.1976,153.509607 L672.998,157.709486 L672.998,157.709486 C673.598133,156.509521 674.198267,154.709573 674.7984,153.509607 L678.999333,142.109937 L681.399867,142.109937 L681.399867,162.509347 L678.999333,162.509347 L678.999333,149.909712 L678.999333,144.509868 L678.999333,144.509868 L677.198933,149.309729 L672.998,161.309382 L671.797733,161.309382 L667.5968,149.309729 L665.7964,144.509868 L665.7964,144.509868 L665.7964,149.909712 L665.7964,162.509347 L663.996,162.509347 L663.996,142.109937 L664.596133,142.109937 Z"/>
  </g>
</svg>

<svg xmlns="http://www.w3.org/2000/svg" width="750" height="471" viewBox="0 0 750 471"><g fill="none" fill-rule="evenodd" transform="translate(15 15)"><rect width="720" height="441" stroke="#393939" stroke-width="30" rx="25"/><path fill="#393939" d="M84.46 228.35c-4.8.6-13.203 2.4-18.004 6.6-14.403 12.599-6.001 34.798 23.406 34.798 16.803 0 33.607-10.8 46.81-27.599-19.204-9-34.808-15.6-52.212-13.8z"/><path fill="#393939" d="M192.034 243.797c27.006 9 33.007 9.6 33.007 9.6v-95.998c0-16.2-13.203-29.399-30.006-29.399H69.007C52.803 128 39 141.2 39 157.4v125.996c0 16.199 13.203 29.399 30.007 29.399h126.028c16.203 0 30.006-13.2 30.006-29.4v-1.2s-48.01-19.799-72.616-31.799c-16.203 19.8-37.208 32.4-59.413 32.4-37.208 0-49.811-32.4-31.807-53.399 3.6-4.8 10.202-9 20.404-11.4 15.604-3.6 40.81 2.4 64.215 10.2 4.2-7.8 7.801-16.2 10.202-25.2H83.41v-7.199h37.208v-14.4h-45.61v-7.2h45.61V155.6s0-3 3-3h18.005v22.2h45.01v6.6h-45.01v13.2h36.608c-3.6 14.399-9.002 27.598-15.604 38.998 12.003 4.2 22.205 7.8 29.407 10.2zm118.655-72.184l39.609 85.797h-21.005l-10.802-22.8h-32.408l-10.802 22.8h-13.803l40.209-83.398s1.2-2.4 3.6-2.4h5.402zm-21.005 55.198h25.206l-12.603-27-12.603 27zm87.448 31.282h-19.204v-81.598c0-2.4 1.2-3.6 4.2-3.6h15.004v85.198zm36.008-.559h-19.204v-61.798c0-2.4 1.2-3.6 4.2-3.6h15.004v65.398zm23.482-64.115h12.603v6c2.4-1.8 4.8-3.6 7.801-4.2 3.001-1.2 6.002-1.8 10.203-1.8 4.2 0 7.801.6 10.802 2.4 3.6 1.8 6.001 3.6 8.402 6.6 2.4 3 4.2 6 5.401 9.6 1.2 3.6 1.8 7.2 1.8 11.399 0 5.4-.6 10.2-2.4 14.4-1.8 4.2-3.6 8.4-6.601 11.4s-6.002 5.999-10.203 7.799c-4.2 1.8-8.402 2.4-13.203 2.4h-6.601c-1.8 0-3.6-.6-5.401-1.2v21.6H430.02v-78.598c-.6-7.8 2.401-7.8 6.602-7.8zm12.603 46.798c0 1.8 0 3 .6 4.2.6 1.2 1.2 2.4 2.4 3.6 1.2 1.2 2.4 1.8 3.601 2.4 1.2.6 3 .6 4.801.6 1.8 0 3-.6 4.801-1.8 1.2-1.2 3.001-2.4 3.601-4.8.6-2.4 1.8-4.2 2.4-7.2.6-3 1.2-5.4 1.2-9 0-4.2 0-7.799-.6-10.799-.6-3-1.2-5.4-2.4-7.8-1.2-1.8-2.4-3.6-3.6-4.8-1.2-1.2-3.001-1.8-4.802-1.8-1.2 0-2.4 0-3.6.6-1.2.6-2.4 1.2-3.001 1.8-1.2.6-1.8 1.8-3 2.4-1.201 1.2-1.801 1.8-2.401 3v29.4zm81.027-46.798c4.801 0 8.402.6 12.003 1.2 3 .6 6.001 1.8 8.402 3.6 2.4 1.8 3.6 3.6 4.8 5.4 1.2 2.4 1.801 4.8 1.801 7.2v47.398h-19.204v-4.8c-1.2 1.2-2.4 1.8-3 2.4l-3.602 1.8c-1.2.6-2.4 1.2-4.2 1.2-1.801.6-3.601.6-5.402.6-3 0-5.401-.6-7.802-1.2-2.4-.6-4.2-1.8-6-3.6-1.801-1.2-3.002-3-3.602-5.4-.6-1.8-1.2-4.2-1.2-6.6 0-2.4.6-4.8 1.2-6.6.6-1.8 2.4-3.6 3.601-5.4 1.2-1.8 3.6-3 5.401-4.2 2.4-1.2 4.201-2.4 7.202-3.6 2.4-1.199 4.8-1.799 7.802-2.999 2.4-.6 5.4-1.8 7.801-2.4l2.4-.6v-6.6c0-1.8 0-3.6-.6-5.4l-1.8-3.6c-.6-.6-1.8-1.8-2.4-1.8-1.2-.6-2.4-.6-3.601-.6 0 0-10.202 0-19.204 7.8l-4.201-6.6c-1.8 1.2 9.002-6.6 23.405-6.6zm6.601 31.799c-1.8.6-3.6 1.8-5.4 3l-5.402 3.6c-1.8 1.2-3 2.4-3.6 4.2-1.201 1.2-1.201 3-1.201 4.2 0 1.2 0 2.4.6 3.6.6 1.2.6 1.8 1.2 3s1.2 1.2 1.8 1.8c.6.6 1.201.6 2.401.6 1.8 0 3.001-.6 4.801-1.2l5.402-3.6v-19.2h-.6zm46.554 53.998h-12.603l-.6-11.4s15.603.6 20.404-5.4c1.8-2.4 3-8.999 3-8.999l-31.206-59.998h21.005l19.804 38.999 17.404-39h13.803l-31.807 70.799c-1.2 2.4-6.001 15-19.204 15z"/><ellipse cx="403.602" cy="174.5" fill="#393939" rx="9.602" ry="8.5"/><path fill="#393939" d="M653.879 143.31h-6.601v-1.2h14.403v1.2h-6.601v18.599h-1.801V143.31zM664.596 142.11h2.4l4.202 11.4 1.8 4.2c.6-1.2 1.2-3 1.8-4.2l4.201-11.4h2.4v20.4H679v-18l-1.8 4.8-4.201 12h-1.2l-4.201-12-1.8-4.8v18h-1.801v-20.4h.6z"/></g></svg>
